X:1
T:Title
%%score ( 1 2 ) { 3 | 4 }
L:1/8
Q:1/4=115
M:4/4
K:Eb
V:1 treble nm="Church Organ, Unnamed-000"
V:2 treble 
V:3 bass nm="Church Organ, Unnamed-001"
V:4 bass 
V:1
 [EB]2 [FB]2 [EB]2 [Ec]2 | c2 z2 z4 | B2 A2 z4 | [EG]2 E2 D2 E2- | E2 [EB]2 [FB]2 [EB]2 | %5
w: By~Johann~Cr�ger,~1647 * * *|||||
 [Ec]2 [Ec]2 [EB]4- | [EB]2 [EB]2 A-[DA] [EG]2 | .E2 G2 F4 | [G,E]4 [B,F]2 [CF]2 | F2 z2 z4 | %10
w: |||||
 z4 z2 .G2 | [FB]2 [Ec]2 [D=A]2 [DB]2- | [DB]4 [DB]2 [Cc]2 | z8 | z4 G2 z2 | E2 z2 D2 z2 | z8 |] %17
w: |||||||
V:2
 x8 | CD [EB]6 | EDCD [EG]2 [DF]2 | z2 F4 z2 | x8 | x8 | z4 .E2 z2 | F-[DF]C=B, C2 _B,A, | x8 | %9
 DC [B,G]2 [EG]2 [DF]2- | [DF]4 F2 E-[E=A] | x8 | x8 | [CB]2 [CA]2 [=EG]2 [FA]2- | [FA]4 ED [CF]2 | %15
 G,A, [B,E]2 B,A, [G,E]2- | [G,E]6 z2 |] %17
V:3
 G,2 F,2 G,2 A,2 | E,F, G,6 | G,2 A,2 B,2 z2 | B,2 B,4 G,2- | G,2 G,2 F,2 G,2 | A,2 A,2 G,4- | %6
 G,2 G,2 A,2 B,2 | F,2 D,2 F,E, D,2 | E,4 D,2 F,2 | B,=A, G,2 B,2 B,2- | B,4 B,2 B,2 | %11
 B,2 B,=A, G,_G, =G,2- | G,4 B,2 G,2 | F,G,A,B,[K:treble] C2 C2- | C4 B,2 A,2 | E,F, G,2 F,2 G,2- | %16
 G,6 z2 |] %17
V:4
 E,2 D,2 E,2 z2 | A,,2 E,6 | E,2 F,2 G,A, B,2 | E,2 B,,4 [E,,E,]2- | [E,,E,]2 E,2 _D,2 D,2 | %5
 C,B,, A,,2 E,,4- | E,,2 E,D, C,2 B,,2 | A,,2 z2 A,,2 B,,2 | E,,4 B,,2 =A,,2 | %9
 B,,2 E,,F,, G,,=A,, B,,2- | B,,4 D,2 E,2 | D,2 C,2 D,2 G,,2- | G,,4 G,F, =E,2 | %13
 D,=E, F,2 C,2 F,,2- | F,,4 G,,2 A,,2 | C,2 B,,2 B,,2 [E,,E,]2- | [E,,E,]6 z2 |] %17

